lib/assets/images/card_visa.svg

<svg width="40" height="40" viewBox="0 0 40 40" fill="none" xmlns="http://www.w3.org/2000/svg">
<mask id="mask0_67_2327" style="mask-type:alpha" maskUnits="userSpaceOnUse" x="1" y="6" width="38" height="28">
<rect x="1" y="6" width="38" height="28" rx="4" fill="#C4C4C4"/>
</mask>
<g mask="url(#mask0_67_2327)">
<rect x="1" y="6" width="38" height="28" fill="#5ECF70"/>
</g>
<path fill-rule="evenodd" clip-rule="evenodd" d="M24.7321 22.1236L23.284 28.8936H21.5325L22.9807 22.1236H24.7321ZM32.1005 26.4952L33.0226 23.9527L33.5529 26.4952H32.1005ZM34.0557 28.8936H35.6751L34.2602 22.1236H32.7663C32.4295 22.1236 32.1458 22.3189 32.0202 22.6199L29.392 28.8936H31.2315L31.5967 27.8826H33.8434L34.0557 28.8936ZM29.4833 26.6836C29.491 24.8969 27.0135 24.7979 27.0299 23.9995C27.0353 23.7569 27.2666 23.4986 27.7727 23.4326C28.0234 23.4002 28.7155 23.374 29.5001 23.7354L29.8069 22.2992C29.3853 22.1468 28.8431 22 28.1686 22C26.4371 22 25.219 22.9197 25.2092 24.2378C25.1982 25.2125 26.0795 25.756 26.7419 26.0806C27.4249 26.4123 27.6538 26.6251 27.6506 26.9216C27.6458 27.3757 27.1057 27.5769 26.6031 27.5844C25.722 27.5982 25.2114 27.3464 24.8043 27.1566L24.4864 28.6408C24.8962 28.8283 25.6516 28.9917 26.4335 29C28.2742 29 29.478 28.0911 29.4833 26.6836ZM22.2294 22.1236L19.3915 28.8936H17.5403L16.1437 23.4906C16.0591 23.1586 15.9853 23.0363 15.7278 22.8961C15.3066 22.6671 14.6113 22.4532 14 22.3202L14.0413 22.1236H17.0217C17.4014 22.1236 17.7428 22.3762 17.8297 22.8136L18.5674 26.7314L20.3894 22.1236H22.2294Z" fill="white"/>
</svg>

<svg width="40" height="40" fill="none" xmlns="http://www.w3.org/2000/svg"><mask id="a" style="mask-type:alpha" maskUnits="userSpaceOnUse" x="1" y="6" width="38" height="28"><rect x="1" y="6" width="38" height="28" rx="4" fill="#C4C4C4"/></mask><g mask="url(#a)"><path fill="#5ECF70" d="M1 6h38v28H1z"/></g><path fill-rule="evenodd" clip-rule="evenodd" d="M24.732 22.124l-1.448 6.77h-1.752l1.449-6.77h1.751zm7.368 4.371l.923-2.542.53 2.542H32.1zm1.956 2.399h1.62l-1.416-6.77h-1.494a.797.797 0 0 0-.746.496l-2.628 6.274h1.84l.365-1.011h2.246l.213 1.01zm-4.573-2.21c.008-1.787-2.47-1.886-2.453-2.684.005-.243.237-.501.743-.567.25-.033.942-.059 1.727.302l.307-1.436A4.723 4.723 0 0 0 28.169 22c-1.732 0-2.95.92-2.96 2.238-.01.974.87 1.518 1.533 1.843.683.331.912.544.909.84-.005.455-.545.656-1.048.663-.881.014-1.392-.238-1.799-.427l-.318 1.484c.41.187 1.166.35 1.947.359 1.841 0 3.045-.909 3.05-2.316zm-7.254-4.56l-2.837 6.77H17.54l-1.396-5.403c-.085-.332-.159-.455-.416-.595-.421-.229-1.117-.443-1.728-.576l.041-.196h2.98c.38 0 .722.252.809.69l.737 3.917 1.822-4.607h1.84z" fill="#fff"/></svg>
